resources/haticons/SVG/archive1.svg

<!-- Generated by IcoMoon.io -->
<svg version="1.1" xmlns="http://www.w3.org/2000/svg" width="24" height="24" viewBox="0 0 24 24">
<title>archive1</title>
<path d="M5.109 5.016h13.781l-0.938-1.031h-12zM12 17.484l5.484-5.484h-3.469v-2.016h-4.031v2.016h-3.469zM20.531 5.25q0.469 0.563 0.469 1.266v12.469q0 0.797-0.609 1.406t-1.406 0.609h-13.969q-0.797 0-1.406-0.609t-0.609-1.406v-12.469q0-0.703 0.469-1.266l1.359-1.688q0.469-0.563 1.172-0.563h12q0.703 0 1.172 0.563z"></path>
</svg>

<svg xmlns="http://www.w3.org/2000/svg" width="24" height="24"><path d="M5.109 5.016H18.89l-.938-1.031h-12zM12 17.484L17.484 12h-3.469V9.984H9.984V12H6.515zM20.531 5.25Q21 5.813 21 6.516v12.469q0 .797-.609 1.406T18.985 21H5.016q-.797 0-1.406-.609t-.609-1.406V6.516q0-.703.469-1.266l1.359-1.688q.469-.563 1.172-.563h12q.703 0 1.172.563z"/></svg>
